frontend/public/assets/material-icons/folder-scripts-open.svg

<svg xmlns="http://www.w3.org/2000/svg" viewBox="0 0 32 32">
  <path d="M28.96692,12H9.44152a2,2,0,0,0-1.89737,1.36754L4,24V10H28a2,2,0,0,0-2-2H15.1241a2,2,0,0,1-1.28038-.46357L12.5563,6.46357A2,2,0,0,0,11.27592,6H4A2,2,0,0,0,2,8V24a2,2,0,0,0,2,2H26l4.80523-11.21213A2,2,0,0,0,28.96692,12Z" style="fill: #546e7a"/>
  <path d="M28,12H22a4,4,0,0,0-4,4v8h2V16h8v9.89294a2.07444,2.07444,0,0,1-1.66412,2.07966A2.00135,2.00135,0,0,1,24,26H16a4,4,0,0,0,4,4h6a4,4,0,0,0,4-4V16h2A4,4,0,0,0,28,12Z" style="fill: #cfd8dc"/>
</svg>

<svg xmlns="http://www.w3.org/2000/svg" viewBox="0 0 32 32"><path fill="#546e7a" d="M28.967 12H9.442a2 2 0 0 0-1.898 1.368L4 24V10h24a2 2 0 0 0-2-2H15.124a2 2 0 0 1-1.28-.464l-1.288-1.072A2 2 0 0 0 11.276 6H4a2 2 0 0 0-2 2v16a2 2 0 0 0 2 2h22l4.805-11.212A2 2 0 0 0 28.967 12"/><path fill="#cfd8dc" d="M28 12h-6a4 4 0 0 0-4 4v8h2v-8h8v9.893a2.074 2.074 0 0 1-1.664 2.08A2 2 0 0 1 24 26h-8a4 4 0 0 0 4 4h6a4 4 0 0 0 4-4V16h2a4 4 0 0 0-4-4"/></svg>
